X:55
T:Sidi Bousaid (Albania)
S:Andy Hornby / Cathy Goss
R:Other
O:Albania
M:4/4
K:DDor
de|ff ed ed d2|cd d/c/d/e/ fd::de|\
f6 ed|f6 ed|e6 dc|d2 d/c/d/g/ d2dc\
|d2d/c/d/g/d2:|
